src/icons/flux.svg

<?xml version="1.0" encoding="UTF-8"?>
<svg xmlns="http://www.w3.org/2000/svg" xmlns:xlink="http://www.w3.org/1999/xlink" width="23.077" height="32" viewBox="0 0 23.077 32" version="1.1">
<g id="surface1">
<path style=" stroke:none;fill-rule:nonzero;fill:rgb(19.607843%,42.352942%,89.803922%);fill-opacity:1;" d="M 1.03125 8.792969 C 0.777344 8.628906 0.625 8.34375 0.625 8.042969 C 0.625 7.742188 0.777344 7.457031 1.03125 7.292969 L 11.058594 0.773438 C 11.355469 0.582031 11.738281 0.582031 12.035156 0.773438 L 22.0625 7.292969 C 22.316406 7.457031 22.46875 7.742188 22.46875 8.042969 C 22.46875 8.34375 22.316406 8.628906 22.0625 8.792969 L 12.035156 15.3125 C 11.738281 15.507812 11.355469 15.507812 11.058594 15.3125 Z M 1.03125 8.792969 "/>
<path style=" stroke:none;fill-rule:nonzero;fill:rgb(75.686276%,82.352942%,96.862745%);fill-opacity:1;" d="M 13.128906 9.945312 L 13.824219 9.945312 C 14.011719 9.945312 14.1875 9.84375 14.28125 9.679688 C 14.378906 9.519531 14.378906 9.3125 14.28125 9.152344 L 12.003906 5.207031 C 11.910156 5.042969 11.734375 4.945312 11.546875 4.945312 C 11.359375 4.945312 11.183594 5.042969 11.089844 5.207031 L 8.8125 9.152344 C 8.714844 9.3125 8.714844 9.519531 8.8125 9.679688 C 8.90625 9.84375 9.082031 9.945312 9.269531 9.945312 L 9.964844 9.945312 C 10.253906 9.945312 10.492188 10.179688 10.492188 10.472656 L 10.492188 14.976562 L 10.957031 15.28125 C 11.316406 15.515625 11.777344 15.515625 12.136719 15.28125 L 12.601562 14.976562 L 12.601562 10.472656 C 12.601562 10.179688 12.839844 9.945312 13.128906 9.945312 M 13.128906 9.945312 "/>
<path style=" stroke:none;fill-rule:nonzero;fill:rgb(19.607843%,42.352942%,89.803922%);fill-opacity:1;" d="M 15.019531 18.65625 L 12.601562 17.082031 L 12.601562 17.828125 C 13.390625 18.160156 14.195312 18.433594 15.019531 18.65625 M 12.601562 19.167969 L 12.601562 20.214844 C 13.402344 20.457031 14.210938 20.660156 15.011719 20.855469 C 17.625 21.5 20.09375 22.109375 22.078125 24.09375 C 22.179688 24.195312 22.273438 24.296875 22.367188 24.402344 C 22.582031 23.992188 22.449219 23.488281 22.0625 23.234375 L 18.132812 20.679688 C 17.179688 20.367188 16.210938 20.125 15.25 19.886719 C 14.34375 19.664062 13.457031 19.441406 12.601562 19.167969 M 10.492188 18.308594 C 10.148438 18.136719 9.816406 17.941406 9.496094 17.730469 L 8.597656 18.3125 C 9.191406 18.746094 9.824219 19.117188 10.492188 19.421875 Z M 13.496094 21.640625 L 12.601562 21.417969 L 12.601562 22.445312 L 13.257812 22.609375 C 15.871094 23.253906 18.339844 23.863281 20.328125 25.847656 C 20.332031 25.851562 20.332031 25.855469 20.335938 25.855469 L 21.1875 25.304688 C 21.132812 25.25 21.085938 25.195312 21.03125 25.140625 C 18.851562 22.960938 16.128906 22.289062 13.496094 21.640625 M 10.492188 20.804688 C 9.34375 20.4375 8.261719 19.882812 7.296875 19.160156 L 6.417969 19.730469 C 7.667969 20.765625 9.058594 21.390625 10.492188 21.855469 Z M 10.492188 23.078125 C 8.535156 22.566406 6.695312 21.9375 5.125 20.570312 L 4.261719 21.132812 C 6.105469 22.832031 8.300781 23.542969 10.492188 24.105469 Z M 12.601562 24.636719 C 14.648438 25.164062 16.570312 25.796875 18.199219 27.246094 L 19.058594 26.6875 C 17.15625 24.898438 14.871094 24.183594 12.601562 23.605469 Z M 2.984375 21.964844 L 2.132812 22.519531 C 2.160156 22.550781 2.1875 22.582031 2.21875 22.613281 C 4.402344 24.792969 7.121094 25.464844 9.753906 26.113281 C 12.03125 26.675781 14.199219 27.210938 16.035156 28.652344 L 16.910156 28.085938 C 14.84375 26.34375 12.382812 25.734375 9.992188 25.144531 C 7.40625 24.507812 4.960938 23.902344 2.984375 21.964844 M 1.171875 23.660156 C 1.074219 23.558594 0.980469 23.457031 0.886719 23.355469 C 0.695312 23.546875 0.601562 23.8125 0.628906 24.082031 C 0.660156 24.347656 0.804688 24.585938 1.03125 24.734375 L 3.984375 26.65625 C 5.289062 27.195312 6.65625 27.535156 8 27.867188 C 10.101562 28.382812 12.105469 28.878906 13.839844 30.082031 L 14.734375 29.5 C 12.757812 28.015625 10.46875 27.445312 8.238281 26.898438 C 5.625 26.253906 3.15625 25.644531 1.171875 23.660156 M 10.78125 31.074219 C 10.976562 31.167969 11.171875 31.269531 11.363281 31.378906 C 11.59375 31.425781 11.835938 31.382812 12.035156 31.253906 L 12.53125 30.933594 C 10.9375 29.867188 9.167969 29.328125 7.402344 28.878906 Z M 10.78125 31.074219 "/>
</g>
</svg>

<svg role="img" viewBox="0 0 23.077 32" xmlns="http://www.w3.org/2000/svg"><path d="M1.031 8.793a.895.895 0 0 1 0-1.5L11.06.773a.902.902 0 0 1 .976 0l10.028 6.52a.895.895 0 0 1 0 1.5l-10.028 6.52a.887.887 0 0 1-.976 0Zm0 0" style="stroke:none;fill-rule:nonzero;fill:rgb(19.607843%,42.352942%,89.803922%);fill-opacity:1"/><path d="M13.129 9.945h.695a.524.524 0 0 0 .457-.265.511.511 0 0 0 0-.528l-2.277-3.945a.528.528 0 0 0-.914 0L8.813 9.152a.511.511 0 0 0 0 .528.524.524 0 0 0 .457.265h.695c.289 0 .527.235.527.528v4.504l.465.304c.36.235.82.235 1.18 0l.465-.304v-4.504c0-.293.238-.528.527-.528m0 0" style="stroke:none;fill-rule:nonzero;fill:rgb(75.686276%,82.352942%,96.862745%);fill-opacity:1"/><path d="m15.02 18.656-2.418-1.574v.746c.789.332 1.593.606 2.418.828m-2.418.512v1.047c.8.242 1.609.445 2.41.64 2.613.645 5.082 1.254 7.066 3.239.102.101.195.203.29.308a.897.897 0 0 0-.305-1.168l-3.93-2.554c-.953-.313-1.922-.555-2.883-.793-.906-.223-1.793-.446-2.648-.719m-2.11-.86a9.715 9.715 0 0 1-.996-.578l-.898.582a10.83 10.83 0 0 0 1.894 1.11Zm3.004 3.333-.894-.223v1.027l.656.164c2.613.645 5.082 1.254 7.07 3.239.004.004.004.007.008.007l.852-.55c-.055-.055-.102-.11-.157-.164-2.18-2.18-4.902-2.852-7.535-3.5m-3.004-.836a10.835 10.835 0 0 1-3.195-1.645l-.879.57c1.25 1.036 2.64 1.66 4.074 2.125Zm0 2.273c-1.957-.512-3.797-1.14-5.367-2.508l-.863.563c1.843 1.699 4.039 2.41 6.23 2.972Zm2.11 1.559c2.046.527 3.968 1.16 5.597 2.61l.86-.56c-1.903-1.789-4.188-2.503-6.457-3.082Zm-9.618-2.672-.851.555c.027.03.054.062.086.093 2.183 2.18 4.902 2.852 7.535 3.5 2.277.563 4.445 1.098 6.281 2.54l.875-.567c-2.066-1.742-4.527-2.352-6.918-2.941-2.586-.637-5.031-1.243-7.008-3.18M1.172 23.66a13.396 13.396 0 0 1-.285-.305.896.896 0 0 0-.258.727.895.895 0 0 0 .402.652l2.953 1.922c1.305.54 2.672.88 4.016 1.211 2.102.516 4.105 1.012 5.84 2.215l.894-.582c-1.976-1.484-4.265-2.055-6.496-2.602-2.613-.644-5.082-1.253-7.066-3.238m9.61 7.414c.195.094.39.196.581.305.23.047.473.004.672-.125l.496-.32c-1.594-1.067-3.363-1.606-5.129-2.055Zm0 0" style="stroke:none;fill-rule:nonzero;fill:rgb(19.607843%,42.352942%,89.803922%);fill-opacity:1"/></svg>
